X: 4
T: Snake In The Cupboard (corrected C part from Laurel)
R: jig
M: 6/8
L: 1/8
K: Bmin
B2f fed |efe edc |B2f fef |g3 fed|
B2f fed |efe edc |B2f fef |a3 fed :|
ABc dcd |edc dcA |Bcd ede|fed edc|
cde fed |gfe fed |cde cde |1 cde aec :|2 cde a3 ||
FGF FDD |FGF FDD |EFE EFG| AGF FDD|
|1 FGF FDD | FGF FDD| EFE EFG| ABd f3 :|
|2 EFE EFG | ABd f3| gaf gef| ded fed ||